X:1     %Music
T:Single Girl
B:Alan Lomax, The Penguin Book of American Folk Songs, Penguin, 1964
F:http://www.folkinfo.org/songs
Q:1/4=116     %Tempo
M:2/4     %Meter
L:1/16     %
K:F
A2A2 A4-|A8 G2G2 C4-|C6 C2 |E2E2 G3G | F8-|F8|    
w:Sin-gle girl,_ sin-gle girl, * She's go-in' dressed so fine;  
A2A2 A4-|A8|G2G2 C4-|C6 
w:Mar-ried girl,_ mar-ried girl, * 
C2 |E2G2 A2G2 |F8 |E8-|E8| z4   
w:She wears just a-ny kind, Oh, 
C4 |E2G2 A2G2 |(F4|F8)z4 |]
w:She wears just a-ny kind. 